X: 20419
T: John Dwyer's
R: reel
M: 4/4
K: Gmajor
|:Bc|dBAB GEDE|G2 BG dGBG|AGAB AGED|EGAB c2 Bc|
dBAB GEDE|G2 BG dGBG|B2 BA BedB|AGAB G2:|
|:ga|bggg bgeg|afef afdf|bggg bgfg|eaag a2 ga|
bgfg agef|gfge dBGA|B2 BA BedB|AGAB G2:|

